Origami/24x24/apps/git.svg

<svg width="24" height="24" version="1" xmlns="http://www.w3.org/2000/svg">
 <path d="m11.499695 1.500019c-0.550024 0-1.100416 0.2050106-1.5115731 0.6161574l-8.3719737 8.3729066c-0.82231375 0.822293-0.82114725 2.198408 0.0012 3.020702l8.3719737 8.372907c0.8223141 0.822294 2.1996551 0.82346 3.0219691 0.0012l8.371974-8.372906c0.822313-0.822294 0.822314-2.199587 0-3.021881l-8.371996-8.3729286c-0.411156-0.4111468-0.961549-0.6161574-1.511574-0.6161574z" style="opacity:.2"/>
 <path d="m11.499695 1.0000196c-0.550024 0-1.100416 0.2050106-1.5115731 0.6161574l-8.3719737 8.3729069c-0.82231375 0.8222931-0.82114725 2.1984081 0.0012 3.0207021l8.3719737 8.372906c0.8223141 0.822294 2.1996551 0.823461 3.0219691 0.0012l8.371974-8.372906c0.822313-0.822294 0.822314-2.199587 0-3.0218801l-8.371996-8.3729289c-0.411156-0.4111468-0.961549-0.6161574-1.511574-0.6161574z" style="fill:#c2352a"/>
 <path d="m6.65625 4.9492188l-0.7070312 0.7070312 3.0507812 3.0507812v7.2929688h1v-6.2929688l3.646484 3.6464848 0.707032-0.707032-7.697266-7.6972652z" style="fill-rule:evenodd;fill:#3f3f3f"/>
 <path d="M 9.5,7.5 A 1.5,1.5 0 0 0 8,9 1.5,1.5 0 0 0 9.5,10.5 1.5,1.5 0 0 0 11,9 1.5,1.5 0 0 0 9.5,7.5 Z m 4,4 A 1.5,1.5 0 0 0 12,13 1.5,1.5 0 0 0 13.5,14.5 1.5,1.5 0 0 0 15,13 1.5,1.5 0 0 0 13.5,11.5 Z m -4,3 A 1.5,1.5 0 0 0 8,16 1.5,1.5 0 0 0 9.5,17.5 1.5,1.5 0 0 0 11,16 1.5,1.5 0 0 0 9.5,14.5 Z" style="opacity:.2"/>
 <path d="m9.5 7a1.5 1.5 0 0 0 -1.5 1.5 1.5 1.5 0 0 0 1.5 1.5 1.5 1.5 0 0 0 1.5 -1.5 1.5 1.5 0 0 0 -1.5 -1.5zm4 4a1.5 1.5 0 0 0 -1.5 1.5 1.5 1.5 0 0 0 1.5 1.5 1.5 1.5 0 0 0 1.5 -1.5 1.5 1.5 0 0 0 -1.5 -1.5zm-4 3a1.5 1.5 0 0 0 -1.5 1.5 1.5 1.5 0 0 0 1.5 1.5 1.5 1.5 0 0 0 1.5 -1.5 1.5 1.5 0 0 0 -1.5 -1.5z" style="fill:#ffffff"/>
 <path d="m11.5 1.0000196c-0.550024 0-1.100561 0.2050636-1.5117176 0.6162104l-8.3720623 8.3730394c-0.473073 0.4730606-0.66434725 1.1280796-0.5927729 1.7568346 0.0534742-0.461878 0.2451516-0.909223 0.5927729-1.256835l8.3720623-8.3730394c0.4111566-0.4111468 0.9616936-0.6162104 1.5117176-0.6162104 0.550025 0 1.100561 0.2050636 1.511718 0.6162104l8.371085 8.3730394c0.3485 0.34849 0.540641 0.797376 0.59375 1.260741 0.07221-0.629984-0.119935-1.286938-0.59375-1.7607406l-8.371085-8.3730394c-0.411157-0.4111467-0.961693-0.6162104-1.511718-0.6162104z" style="fill:#ffffff;opacity:.2"/>
</svg>

<svg xmlns="http://www.w3.org/2000/svg" width="24" height="24" version="1">
 <path style="opacity:0.2" d="m 11.499695,1.500019 c -0.550024,0 -1.100416,0.2050106 -1.5115731,0.6161574 L 1.6161482,10.489083 c -0.82231375,0.822293 -0.82114725,2.198408 0.0012,3.020702 l 8.3719737,8.372907 c 0.8223141,0.822294 2.1996551,0.82346 3.0219691,0.0012 l 8.371974,-8.372906 c 0.822313,-0.822294 0.822314,-2.199587 0,-3.021881 L 13.011269,2.1161764 C 12.600113,1.7050296 12.04972,1.500019 11.499695,1.500019 Z"/>
 <path style="fill:#c2352a" d="m 11.499695,1.0000196 c -0.550024,0 -1.100416,0.2050106 -1.5115731,0.6161574 L 1.6161482,9.9890839 c -0.82231375,0.8222931 -0.82114725,2.1984081 0.0012,3.0207021 l 8.3719737,8.372906 c 0.8223141,0.822294 2.1996551,0.823461 3.0219691,0.0012 l 8.371974,-8.372906 c 0.822313,-0.822294 0.822314,-2.199587 0,-3.0218801 L 13.011269,1.616177 C 12.600113,1.2050302 12.04972,1.0000196 11.499695,1.0000196 Z"/>
 <path style="fill:#3f3f3f;fill-rule:evenodd" d="M 6.65625 4.9492188 L 5.9492188 5.65625 L 9 8.7070312 L 9 16 L 10 16 L 10 9.7070312 L 13.646484 13.353516 L 14.353516 12.646484 L 6.65625 4.9492188 z"/>
 <path d="M 9.5,7.5 A 1.5,1.5 0 0 0 8,9 1.5,1.5 0 0 0 9.5,10.5 1.5,1.5 0 0 0 11,9 1.5,1.5 0 0 0 9.5,7.5 Z m 4,4 A 1.5,1.5 0 0 0 12,13 1.5,1.5 0 0 0 13.5,14.5 1.5,1.5 0 0 0 15,13 1.5,1.5 0 0 0 13.5,11.5 Z m -4,3 A 1.5,1.5 0 0 0 8,16 1.5,1.5 0 0 0 9.5,17.5 1.5,1.5 0 0 0 11,16 1.5,1.5 0 0 0 9.5,14.5 Z" style="opacity:0.2"/>
 <path style="fill:#ffffff" d="M 9.5 7 A 1.5 1.5 0 0 0 8 8.5 A 1.5 1.5 0 0 0 9.5 10 A 1.5 1.5 0 0 0 11 8.5 A 1.5 1.5 0 0 0 9.5 7 z M 13.5 11 A 1.5 1.5 0 0 0 12 12.5 A 1.5 1.5 0 0 0 13.5 14 A 1.5 1.5 0 0 0 15 12.5 A 1.5 1.5 0 0 0 13.5 11 z M 9.5 14 A 1.5 1.5 0 0 0 8 15.5 A 1.5 1.5 0 0 0 9.5 17 A 1.5 1.5 0 0 0 11 15.5 A 1.5 1.5 0 0 0 9.5 14 z"/>
 <path style="opacity:0.2;fill:#ffffff" d="m 11.5,1.0000196 c -0.550024,0 -1.100561,0.2050636 -1.5117176,0.6162104 L 1.6162201,9.9892694 C 1.1431471,10.46233 0.95187285,11.117349 1.0234472,11.746104 1.0769214,11.284226 1.2685988,10.836881 1.6162201,10.489269 L 9.9882824,2.1162296 C 10.399439,1.7050828 10.949976,1.5000192 11.5,1.5000192 c 0.550025,0 1.100561,0.2050636 1.511718,0.6162104 l 8.371085,8.3730394 c 0.3485,0.34849 0.540641,0.797376 0.59375,1.260741 0.07221,-0.629984 -0.119935,-1.286938 -0.59375,-1.7607406 L 13.011718,1.61623 C 12.600561,1.2050833 12.050025,1.0000196 11.5,1.0000196 Z"/>
</svg>
